packages/ui-icons/svg/Solid/quiz-stats-low.svg

<svg viewBox="0 0 1920 1920" version="1.1" xmlns="http://www.w3.org/2000/svg">
    <path d="M1355.29412,1355.29412 L790.588235,1355.29412 L790.588235,1242.35294 L1162.50353,1242.35294 L581.195294,661.157647 L661.157647,581.195294 L1242.35294,1162.50353 L1242.35294,790.588235 L1355.29412,790.588235 L1355.29412,1355.29412 Z M960,0 C430.644706,0 2.5243549e-29,430.644706 2.5243549e-29,960 C2.5243549e-29,1489.35529 430.644706,1920 960,1920 C1489.35529,1920 1920,1489.35529 1920,960 C1920,430.644706 1489.35529,0 960,0 L960,0 Z" stroke="none" stroke-width="1" fill-rule="evenodd"/>
</svg>

<svg viewBox="0 0 1920 1920" xmlns="http://www.w3.org/2000/svg">
    <path d="M1355.294 1355.294H790.588v-112.941h371.916L581.195 661.158l79.963-79.963 581.195 581.309V790.588h112.941v564.706ZM960 0C430.645 0 0 430.645 0 960s430.645 960 960 960 960-430.645 960-960S1489.355 0 960 0Z" fill-rule="evenodd"/>
</svg>
